Sweet-Rainbow/icons/twitter.svg

<?xml version="1.0" encoding="UTF-8" standalone="no"?>
<!-- Generator: Gravit.io -->

<svg
   xmlns:dc="http://purl.org/dc/elements/1.1/"
   xmlns:cc="http://creativecommons.org/ns#"
   xmlns:rdf="http://www.w3.org/1999/02/22-rdf-syntax-ns#"
   xmlns:svg="http://www.w3.org/2000/svg"
   xmlns="http://www.w3.org/2000/svg"
   xmlns:sodipodi="http://sodipodi.sourceforge.net/DTD/sodipodi-0.dtd"
   xmlns:inkscape="http://www.inkscape.org/namespaces/inkscape"
   style="isolation:isolate"
   viewBox="0 0 36 36"
   width="48"
   height="48"
   version="1.1"
   id="svg20"
   sodipodi:docname="twitter.svg"
   inkscape:version="0.92.4 (5da689c313, 2019-01-14)">
  <metadata
     id="metadata26">
    <rdf:RDF>
      <cc:Work
         rdf:about="">
        <dc:format>image/svg+xml</dc:format>
        <dc:type
           rdf:resource="http://purl.org/dc/dcmitype/StillImage" />
        <dc:title></dc:title>
      </cc:Work>
    </rdf:RDF>
  </metadata>
  <defs
     id="defs24" />
  <sodipodi:namedview
     pagecolor="#ffffff"
     bordercolor="#666666"
     borderopacity="1"
     objecttolerance="10"
     gridtolerance="10"
     guidetolerance="10"
     inkscape:pageopacity="0"
     inkscape:pageshadow="2"
     inkscape:window-width="640"
     inkscape:window-height="480"
     id="namedview22"
     showgrid="false"
     inkscape:zoom="29.365243"
     inkscape:cx="25.325443"
     inkscape:cy="32"
     inkscape:current-layer="svg20"
     units="px" />
  <linearGradient
     id="_lgradient_14"
     x1="-1.7719635"
     y1="0.41722408"
     x2="2.2023804"
     y2="0.43849707"
     gradientTransform="matrix(10.051,0,0,11.96,24.774,6.509)"
     gradientUnits="userSpaceOnUse">
    <stop
       offset="0%"
       stop-opacity="1"
       style="stop-color:rgb(84,51,255)"
       id="stop2" />
    <stop
       offset="51.73913043478261%"
       stop-opacity="1"
       style="stop-color:rgb(32,189,255)"
       id="stop4" />
    <stop
       offset="98.26086956521739%"
       stop-opacity="1"
       style="stop-color:rgb(165,254,203)"
       id="stop6" />
  </linearGradient>
  <linearGradient
     id="_lgradient_15"
     x1="0"
     y1="0.5"
     x2="1"
     y2="0.5"
     gradientTransform="matrix(46.43,0,0,35.001,0.785,6.499)"
     gradientUnits="userSpaceOnUse">
    <stop
       offset="0%"
       stop-opacity="1"
       style="stop-color:rgb(84,51,255)"
       id="stop11" />
    <stop
       offset="51.73913043478261%"
       stop-opacity="1"
       style="stop-color:rgb(32,189,255)"
       id="stop13" />
    <stop
       offset="98.26086956521739%"
       stop-opacity="1"
       style="stop-color:rgb(165,254,203)"
       id="stop15" />
  </linearGradient>
  <g
     id="g835"
     transform="matrix(0.77536076,0,0,0.77536076,-0.60865824,-0.6083302)">
    <path
       id="path9"
       d="m 24.915,18.459 c 0.01,-0.63 -0.04,-1.25 -0.14,-1.87 -0.03,-2.66 1,-5.23 2.88,-7.13 1.87,-1.89 4.51,-2.95 7.17,-2.95 l -0.08,2.99 c -1.83,0 -3.59,0.72 -4.89,2.01 -1.31,1.28 -2.05,3.03 -2.08,4.86 0.1,0.69 0.15,1.39 0.14,2.1"
       style="fill:url(#_lgradient_14)"
       inkscape:connector-curvature="0" />
    <path
       id="path18"
       d="m 34.825,6.509 z m 0,0 h -0.06 z m -8.45,28.98 -0.12,-0.01 0.25,-0.01 -0.09,0.01 z m -16.39,-8.98 c -0.02,-0.01 -0.03,-0.02 -0.04,-0.03 z m -0.09,-13.69 c 0.51,0.51 1.03,1.01 1.58,1.48 1.21,1.07 2.54,1.98 3.97,2.74 1.57,0.82 3.25,1.43 4.98,1.82 2.05,0.44 4.13,0.66 6.23,0.64 h 0.06 l 0.16,0.01 0.37,-0.01 c 1.71,0.01 3.36,0.7 4.58,1.91 1.21,1.22 1.89,2.87 1.89,4.59 0,1.72 -0.68,3.37 -1.89,4.58 -1.21,1.22 -2.86,1.91 -4.57,1.92 l -0.32,-0.02 -0.18,0.01 -0.07,0.01 -0.41,-0.02 -0.17,0.02 h -0.02 -6.72 c -0.79,-0.03 -1.57,-0.17 -2.31,-0.44 -0.83,-0.29 -1.62,-0.68 -2.36,-1.16 -0.28,-0.19 -0.55,-0.38 -0.81,-0.6 4.46,0.78 9.04,-0.54 12.41,-3.56 -1.76,1.07 -3.78,1.62 -5.84,1.57 -2.06,-0.05 -4.06,-0.68 -5.76,-1.84 -0.88,-0.57 -1.7,-1.22 -2.45,-1.95 -0.73,-0.68 -1.35,-1.47 -1.85,-2.32 0.02,0 0.04,0 0.06,0.01 2.72,0.57 5.53,0.51 8.22,-0.19 -2.18,-0.8 -4.23,-1.94 -6.07,-3.36 -0.54,-0.42 -1.05,-0.88 -1.52,-1.38 -0.41,-0.44 -0.76,-0.92 -1.03,-1.45 -0.22,-0.41 -0.33,-0.85 -0.34,-1.31 0,-0.57 0.06,-1.14 0.18,-1.7 z m 4.713,21.446 c -0.145,0.046 -0.332,0.122 -0.543,0.214 -1.54,0.68 -3.21,1.04 -4.9,1.06 -2.97,0 -5.87,-0.84 -8.38,-2.43 2.98,3.9 7.24,6.63 12.04,7.67 2.3,0.5 4.64,0.74 7,0.72 3.67,0.03 7.3,-0.74 10.65,-2.25 2.99,-1.37 5.65,-3.35 7.84,-5.81 2.05,-2.31 3.67,-4.98 4.77,-7.88 1.06,-2.75 1.61,-5.66 1.63,-8.6 0,-0.02 0,-0.03 0,-0.05 v -0.18 l -0.01,-0.08 0.01,-0.1 c 0,-0.03 0,-0.05 0,-0.08 0,-0.211 -0.007,-0.422 -0.019,-0.632 0.95,-0.857 1.817,-1.818 2.519,-2.838 v 0 c -0.872,0.376 -1.858,0.612 -2.867,0.769 -0.091,-0.292 -0.188,-0.583 -0.322,-0.859 1.001,-0.775 1.842,-1.705 2.239,-2.91 v 0 0 c -0.916,0.528 -1.982,0.921 -3.086,1.213 v 0 c -0.253,-0.449 -0.562,-0.868 -0.904,-1.263 -1.57,-1.81 -3.74,-3 -6.11,-3.34 l -0.33,-0.05 -0.35,-0.02 -0.14,-0.02 -0.37,-0.02 h -0.12 v 0 h -0.03 v 0.01 h 0.11 l -0.08,-0.01 -0.03,0.01 -0.17,2.99 0.2,0.01 0.1,-0.01 h 0.04 0.05 -0.18 0.09 l 0.14,0.01 0.14,0.02 0.27,0.02 0.22,0.03 c 0,0 0,0 0.01,0 1.65,0.24 3.16,1.06 4.26,2.32 1.1,1.25 1.71,2.86 1.72,4.53 l -0.01,0.18 0.01,0.2 v 0.15 c -0.02,2.58 -0.5,5.12 -1.43,7.52 -0.97,2.56 -2.4,4.93 -4.22,6.97 -1.9,2.14 -4.23,3.87 -6.83,5.07 -2.96,1.33 -6.17,2.01 -9.42,1.98 -2.11,0.02 -4.22,-0.19 -6.28,-0.63 0.59,-0.18 1.17,-0.4 1.74,-0.65 1.14,-0.494 2.236,-1.08 3.275,-1.76 0.248,0.018 0.496,0.034 0.745,0.04 0.02,0 0.03,0 0.05,0 h 6.88 l 0.15,-0.01 0.31,0.01 0.23,-0.01 h 0.04 l 0.18,0.01 c 0.03,0 0.05,0 0.08,0 2.52,0 4.94,-1 6.72,-2.78 1.78,-1.78 2.78,-4.2 2.78,-6.72 0,-2.52 -1,-4.94 -2.78,-6.72 -1.78,-1.78 -4.2,-2.78 -6.72,-2.78 -0.02,0 -0.04,0 -0.05,0 l -0.25,0.01 h -0.03 l -0.12,-0.01 c -0.03,0 -0.06,0 -0.1,0 -1.88,0.02 -3.75,-0.17 -5.59,-0.57 -1.48,-0.33 -2.9,-0.85 -4.24,-1.54 -1.21,-0.65 -2.35,-1.44 -3.38,-2.34 -1.54,-1.36 -2.95,-2.86 -4.19,-4.49 -1.12,1.19 -1.89,2.67 -2.23,4.27 -0.21,0.89 -0.32,1.79 -0.32,2.71 0.01,0.93 0.24,1.85 0.68,2.67 0.23,0.45 0.49,0.87 0.79,1.27 -0.38,0.01 -0.74,0.17 -1.01,0.44 -0.26,0.27 -0.42,0.63 -0.43,1.01 v 0.02 0.1 0 c 0,0.02 0,0.05 0,0.07 0.04,1.28 0.41,2.52 1.07,3.61 0.59,1 1.31,1.93 2.13,2.75 -0.49,0.03 -0.97,0.13 -1.43,0.31 0.21,1.66 0.92,3.2 2.03,4.45 0.73,0.83 1.58,1.56 2.51,2.16 0.497,0.328 1.013,0.622 1.553,0.866 z M 35.215,13.999 c 0,-1.103 0.896,-2 2,-2 1.104,0 2,0.897 2,2 0,1.104 -0.896,2 -2,2 -1.104,0 -2,-0.896 -2,-2 z"
       style="fill:url(#_lgradient_15);fill-rule:evenodd"
       inkscape:connector-curvature="0" />
  </g>
</svg>

<?xml version="1.0" encoding="UTF-8" standalone="no"?><!-- Generator: Gravit.io --><svg xmlns="http://www.w3.org/2000/svg" xmlns:xlink="http://www.w3.org/1999/xlink" style="isolation:isolate" viewBox="0 0 48 48" width="48pt" height="48pt"><linearGradient id="_lgradient_14" x1="-1.771963500651208" y1="0.41722408026755853" x2="2.2023804857359712" y2="0.43849705508035525" gradientTransform="matrix(10.051,0,0,11.96,24.774,6.509)" gradientUnits="userSpaceOnUse"><stop offset="0%" stop-opacity="1" style="stop-color:rgb(84,51,255)"/><stop offset="51.73913043478261%" stop-opacity="1" style="stop-color:rgb(32,189,255)"/><stop offset="98.26086956521739%" stop-opacity="1" style="stop-color:rgb(165,254,203)"/></linearGradient><path d=" M 24.915 18.459 C 24.925 17.829 24.875 17.209 24.775 16.589 C 24.745 13.929 25.775 11.359 27.655 9.459 C 29.525 7.569 32.165 6.509 34.825 6.509 L 34.745 9.499 C 32.915 9.499 31.155 10.219 29.855 11.509 C 28.545 12.789 27.805 14.539 27.775 16.369 C 27.875 17.059 27.925 17.759 27.915 18.469" fill="url(#_lgradient_14)"/><linearGradient id="_lgradient_15" x1="0" y1="0.5" x2="1" y2="0.5" gradientTransform="matrix(46.43,0,0,35.001,0.785,6.499)" gradientUnits="userSpaceOnUse"><stop offset="0%" stop-opacity="1" style="stop-color:rgb(84,51,255)"/><stop offset="51.73913043478261%" stop-opacity="1" style="stop-color:rgb(32,189,255)"/><stop offset="98.26086956521739%" stop-opacity="1" style="stop-color:rgb(165,254,203)"/></linearGradient><path d=" M 34.825 6.509 L 34.825 6.509 L 34.825 6.509 L 34.825 6.509 Z  M 34.825 6.509 L 34.765 6.509 L 34.825 6.509 L 34.825 6.509 L 34.825 6.509 L 34.825 6.509 L 34.825 6.509 Z  M 26.375 35.489 L 26.255 35.479 L 26.505 35.469 L 26.415 35.479 L 26.375 35.489 L 26.375 35.489 L 26.375 35.489 Z  M 9.985 26.509 C 9.965 26.499 9.955 26.489 9.945 26.479 L 9.985 26.509 L 9.985 26.509 L 9.985 26.509 Z  M 9.895 12.819 C 10.405 13.329 10.925 13.829 11.475 14.299 C 12.685 15.369 14.015 16.279 15.445 17.039 C 17.015 17.859 18.695 18.469 20.425 18.859 C 22.475 19.299 24.555 19.519 26.655 19.499 L 26.715 19.499 L 26.875 19.509 L 27.245 19.499 C 28.955 19.509 30.605 20.199 31.825 21.409 C 33.035 22.629 33.715 24.279 33.715 25.999 C 33.715 27.719 33.035 29.369 31.825 30.579 C 30.615 31.799 28.965 32.489 27.255 32.499 L 26.935 32.479 L 26.755 32.489 L 26.685 32.499 L 26.275 32.479 L 26.105 32.499 L 26.085 32.499 L 19.365 32.499 C 18.575 32.469 17.795 32.329 17.055 32.059 C 16.225 31.769 15.435 31.379 14.695 30.899 C 14.415 30.709 14.145 30.519 13.885 30.299 C 18.345 31.079 22.925 29.759 26.295 26.739 C 24.535 27.809 22.515 28.359 20.455 28.309 C 18.395 28.259 16.395 27.629 14.695 26.469 C 13.815 25.899 12.995 25.249 12.245 24.519 C 11.515 23.839 10.895 23.049 10.395 22.199 C 10.415 22.199 10.435 22.199 10.455 22.209 C 13.175 22.779 15.985 22.719 18.675 22.019 C 16.495 21.219 14.445 20.079 12.605 18.659 C 12.065 18.239 11.555 17.779 11.085 17.279 C 10.675 16.839 10.325 16.359 10.055 15.829 C 9.835 15.419 9.725 14.979 9.715 14.519 C 9.715 13.949 9.775 13.379 9.895 12.819 L 9.895 12.819 L 9.895 12.819 Z  M 14.608 34.265 C 14.463 34.311 14.276 34.387 14.065 34.479 C 12.525 35.159 10.855 35.519 9.165 35.539 C 6.195 35.539 3.295 34.699 0.785 33.109 C 3.765 37.009 8.025 39.739 12.825 40.779 C 15.125 41.279 17.465 41.519 19.825 41.499 C 23.495 41.529 27.125 40.759 30.475 39.249 C 33.465 37.879 36.125 35.899 38.315 33.439 C 40.365 31.129 41.985 28.459 43.085 25.559 C 44.145 22.809 44.695 19.899 44.715 16.959 C 44.715 16.939 44.715 16.929 44.715 16.909 L 44.715 16.729 L 44.705 16.649 L 44.715 16.549 C 44.715 16.519 44.715 16.499 44.715 16.469 C 44.715 16.258 44.708 16.047 44.696 15.837 C 45.646 14.98 46.513 14.019 47.215 12.999 L 47.215 12.999 C 46.343 13.375 45.357 13.611 44.348 13.768 C 44.257 13.476 44.16 13.185 44.026 12.909 C 45.027 12.134 45.868 11.204 46.265 9.999 L 46.265 9.999 L 46.265 9.999 C 45.349 10.527 44.283 10.92 43.179 11.212 L 43.179 11.212 C 42.926 10.763 42.617 10.344 42.275 9.949 C 40.705 8.139 38.535 6.949 36.165 6.609 L 35.835 6.559 L 35.485 6.539 L 35.345 6.519 L 34.975 6.499 L 34.855 6.499 L 34.855 6.499 L 34.825 6.499 L 34.825 6.509 L 34.935 6.509 L 34.855 6.499 L 34.825 6.509 L 34.655 9.499 L 34.855 9.509 L 34.955 9.499 L 34.995 9.499 L 35.045 9.499 L 34.865 9.499 L 34.955 9.499 L 35.095 9.509 L 35.235 9.529 L 35.505 9.549 L 35.725 9.579 C 35.725 9.579 35.725 9.579 35.735 9.579 C 37.385 9.819 38.895 10.639 39.995 11.899 C 41.095 13.149 41.705 14.759 41.715 16.429 L 41.705 16.609 L 41.715 16.809 L 41.715 16.959 C 41.695 19.539 41.215 22.079 40.285 24.479 C 39.315 27.039 37.885 29.409 36.065 31.449 C 34.165 33.589 31.835 35.319 29.235 36.519 C 26.275 37.849 23.065 38.529 19.815 38.499 C 17.705 38.519 15.595 38.309 13.535 37.869 C 14.125 37.689 14.705 37.469 15.275 37.219 C 16.415 36.725 17.511 36.139 18.55 35.459 C 18.798 35.477 19.046 35.493 19.295 35.499 C 19.315 35.499 19.325 35.499 19.345 35.499 L 26.225 35.499 L 26.375 35.489 L 26.685 35.499 L 26.915 35.489 L 26.955 35.489 L 27.135 35.499 C 27.165 35.499 27.185 35.499 27.215 35.499 C 29.735 35.499 32.155 34.499 33.935 32.719 C 35.715 30.939 36.715 28.519 36.715 25.999 C 36.715 23.479 35.715 21.059 33.935 19.279 C 32.155 17.499 29.735 16.499 27.215 16.499 C 27.195 16.499 27.175 16.499 27.165 16.499 L 26.915 16.509 L 26.885 16.509 L 26.765 16.499 C 26.735 16.499 26.705 16.499 26.665 16.499 C 24.785 16.519 22.915 16.329 21.075 15.929 C 19.595 15.599 18.175 15.079 16.835 14.389 C 15.625 13.739 14.485 12.949 13.455 12.049 C 11.915 10.689 10.505 9.189 9.265 7.559 C 8.145 8.749 7.375 10.229 7.035 11.829 C 6.825 12.719 6.715 13.619 6.715 14.539 C 6.725 15.469 6.955 16.389 7.395 17.209 C 7.625 17.659 7.885 18.079 8.185 18.479 C 7.805 18.489 7.445 18.649 7.175 18.919 C 6.915 19.189 6.755 19.549 6.745 19.929 L 6.745 19.949 L 6.745 20.049 L 6.745 20.049 C 6.745 20.069 6.745 20.099 6.745 20.119 C 6.785 21.399 7.155 22.639 7.815 23.729 C 8.405 24.729 9.125 25.659 9.945 26.479 C 9.455 26.509 8.975 26.609 8.515 26.789 C 8.725 28.449 9.435 29.989 10.545 31.239 C 11.275 32.069 12.125 32.799 13.055 33.399 C 13.552 33.727 14.068 34.021 14.608 34.265 L 14.608 34.265 Z  M 35.215 13.999 C 35.215 12.896 36.111 11.999 37.215 11.999 C 38.319 11.999 39.215 12.896 39.215 13.999 C 39.215 15.103 38.319 15.999 37.215 15.999 C 36.111 15.999 35.215 15.103 35.215 13.999 Z " fill-rule="evenodd" fill="url(#_lgradient_15)"/></svg>
